!!!!SEGMENT: pl-sa--381--a-viii-21--006_anonim--aniele-strolzu-duszy.krn
!!!cenid: 18xx:1312
!!!COM: Anonim
!!!COM-rismID: pe30004985
!!!CDT:
!!!CNT:
!!!OTL: Aniele stróżu duszy
!!!PDT:
!!!AGN: Sacred
!!!SMS-siglum: PL-SA
!!!SMS-shelfmark: 381/ A VIII 21
!!!SMS-shelfwork: 003 W
!!!SMS-variant:
!!!SMS-altvar:
!!!NIFC-rismSourceID: 1001106435
!!!NIFC-islandoraID:
!!!URL-pdf-islandora:
!!!URL-scan: https://bc.bdsandomierz.pl/dlibra/publication/1685/edition/1653/content @EN{Scan in the Sandomierz Diocese Digital Library} @PL{Skany w portalu Cyfrowa Biblioteka Diecezjalna w Sandomierzu}
!!!ONB-nifc: UWAGA: str. 7. Utwory w zbiorze: 1. Kyrie, 2. Gloria, 3. Credo, 4. Przyjmij Boże tę ofiarę, 5. Sanctus, 6. Aniele stróżu duszy, 7. Agnus Dei, 8. Dona nobis, 9. Boże cesarza chroń, 10. Ciebie Boże wychwalamy, 11. Chwałę Panu wdzięcznym pieniem
!!!OMD: Andante
!!!AIN: 1 vox
!!!key: a
**kern	**text	**text
*part1	*part1	*part1
*staff1	*staff1	*staff1
*ICvox	*	*
*Ivox	*	*
*I"	*	*
*>[A,A,B,B]	*>[A,A,B,B]	*>[A,A,B,B]
*>A	*>A	*>A
*clefG2	*	*
*k[]	*	*
*a:	*	*
*M4/4	*	*
*met(c)	*	*
=1	=1	=1
!LO:TX:a:t=Pieśń do Anioła Stróża	!	!
4e/	A-	Jak
8e/L	-nie-	bla-
8d/J	-le	-dy
!LO:N:vis=4	!	!
4.cc\	stró-	pło-
8b\	-zu	-myk
=2	=2	=2
4a/	du-	świe-
4a/	-szy	-ci
2r	.	.
=3	=3	=3
4a/	z_po-	Twój
8cc/L	-ko-	o-
8cc/J	-rą	-braz
(4.ee\	bła-	w_nie-
8ff\)	.	.
=4	=4	=4
4ee\	-gam	-bie
4b\	cię	tle
2r	.	.
!!LO:LB:g=original
=5	=5	=5
4b\	gdy	ku
8b\L	mysl	To-
8b\J	mię	-bie
4.ff\	ziem-	duch
8ee\	-ska	mój
=6	=6	=6
(8dd\	wzru-	le-
4cc\)	.	.
4cc\	-szy	-ci
8r	.	.
4r	.	.
=7	=7	=7
4b\	ach	dla
8b\L	nie	cie-
8b\J	o-	-bie
4.cc\	-pusz-	ser-
8b\	-czaj	-ce
=8	=8	=8
8a/	mię	wre
8r	.	.
4r	.	.
2r	.	.
!!LO:LB:g=original
=9:|!|:	=9:|!|:	=9:|!|:
*>B	*>B	*>B
4g/	Niech	Ty
8g/L	przed	mi
8g/J	skrzy-	ra-
4.a/	-dła-	-da-
8f/	-mi	-mi
=10	=10	=10
4cc\	Twe-	swe-
4g\	-mi	-mi
2r	.	.
=11	=11	=11
4dd\	złych	Po-
8ee\L	ma-	-cie-
8dd\J	-rzeń	-chy
4dd\	pierz-	zle-
(8cc#X\L	-chnie	-wasz
8dd\J)	.	.
=12	=12	=12
*2\right	*	*
2ee\	rój	zdrój
4r	.	.
!!LO:LB:g=original
4ee\	ach	ach
=13	=13	=13
*	*	*ij
4ff\	wspie-	wspie-
8dd\L	-raj	-raj
8b\J	.	.
4b\	mię	mię
8a\L	na	na
8b\J	.	.
=14	=14	=14
4cc\	zie-	zie-
4cc\	-mi	-mi
2r	.	.
=15	=15	=15
4e/	a-	a-
8e/L	-nie-	-nie-
8e/J	-le	-le
!LO:N:vis=4	!	!
4.cc\	stró-	stró-
8b\	-zu	-zu
=16	=16	=16
4a\	moj	moj
*	*	*Xij
!LO:N:vis=2	!	!
!LO:TX:t=P:problem=brak zakończenia repetycji	!	!
2.r	.	.
==	==	==
*-	*-	*-
!!!system-decoration: *
!!!RDF**kern: > = above
!!!RDF**kern: < = below
!!!ENC: Tomasz Grochalski
!!!END: 2020-12-09
!!!ENC: Andrzej Kubiczek
!!!END: 2022-01-07
